X:550
T:Reel 550
M: 4/4
L:1/8
K: G Major
ge|d2BGAGEF|G2BdgdBd|d2BG(3ABcBA|1g2dBcdef:|2g2dBe2|ef|fdadfdAB|d2agfd(3ddd|fdadbdad|gfefg2ef|fdadfdAB|d2agfd(3ddd|afdfg2df|edcBcdef|.abc